X:3244
T:Kerry Reel, The
T:Greenfields of Rossbeg, The
T:Greenfields of Rossbank, The
O:england
R:reel
S:as recorded by Michael Coleman in 1924 on a New Republic 78
N:Just his first time through the tune. Transcribed by Alan Ng
D:Gael-Linn CEFCD 161
E:10
M:C|
K:EDor
dc|BE ~E2 BAFB|ABde fded|BE ~E2 BAFA|BFAF E2 FA|BE ~E2 BAFA|ABde fded|\
E:10
BE ~E2 BAFA|BFAF E3|:A|(3Bcd ef g2 fe|dB ~B2 dBAd|\
(3Bcd ee ef ge|dBAF E2 ef|1gb{a}af g2eg|~f3g fedB|\
ABde ~f3e|dBAF E2GA:|2 gbaf gfeg|fage fedB|\
ABde fgfe|dBAF E2FA||


